!!!COM: Hugo Wolf
!!!CNT: Deutscher
!!!TXO: Deutsche 
!!!OTL: In der Fru2he
!!!ONM: No. 24
!!!ODT: 1888/
!!!LYR: Moericke
!!!ENC: Brian Bice
!!!YOR: 65 Songs for voice and piano, International Music Company, 1960
!!NB: Vocal melody and text only encoded.
**kern	**silbe
*clefG2	*
*k[b-]	*
*M4/4	*
=1	=1
4r	.
8r	.
{8g#	{Kein
8cc	Schlaf
8bn	noch
8a	ku2hlt
8g#	das
=2	=2
8.f#	Au-
16f#	-ge
4e}	mir,}
2r	.
=3	=3
8r	.
{8c	{dort
8c	ge-
8c	-het
8f#	schon
8f#	der
8.bn	Tag
16c	her-
=4	=4
8bn	-fu2r
8g	an
8f#	mei-
8e	-nem
8.d#	Kam-
16f#	-mer-
8f#	-fen-
8bn}	-ster.}
=6	=6
4r	.
8r	.
{8bn	{Es
8ee	wu2h-
8dd#	-let
8a	mein
8cc	ver-
=7	=7
(4ee	-sto2r-
8ff)	|
8ff	-ter
8ee	Sinn
8dd#	noch
8a	zwi-
8cc}	-schen}
=8	=8
{8bn	{Zwei-
8a#	-feln
8e	her
8f#	und
8g	hin
8e	und
8g	schaf-
8an	-fet
=9	=9
(4bn	Nacht-
8cc)	|
8cc	-ge-
4bn	-spen-
4e}	-ster.}
=11	=11
*k[f#c#g#d#]	*
4r	.
{2ee	{A2ng-
4b	-st'ge
=12	=12
4r	.
4.ee	qua2-
8bb	-le
8a	dich
8f#	nicht
=13	=13
8g#	la2n-
8b	-ger,
8a	mei-
8f#	-ne
4e	See-
4b}	-le!}
=14	=14
*k[f#]	*
4r	.
{2gg	{Freu
4dd	dich!
=15	=15
4r	.
2d	Schon
4d	sind
=16	=16
*k[b-e-]	*
4.f	da
8b-	und
4b-	dor-
4f}	-ten}
=17	=17
4r	.
{2ff	{Mor-
4f	-gen-
=18	=18
*k[f#c#]	*
2.dd	-glo-
4a	-cken
=19	=19
4r	.
[2a	wach
8.a]	|
16a	ge-
=20	=20
1a	-wor-
=21	=21
2a}	-den.}
2r	.
*-	*-
